packages/foundations/assets/icons/functional/images/navigation/log_out_20.svg

<svg width="20" height="20" viewBox="0 0 20 20" fill="none" xmlns="http://www.w3.org/2000/svg">
<g clip-path="url(#clip0_187_61)">
<path fill-rule="evenodd" clip-rule="evenodd" d="M2.5 14C2.5 15.6562 3.8438 17 5.5 17H7.5C8.0625 17 8.5 16.5312 8.5 16C8.5 15.4375 8.0625 15 7.5 15H5.5C4.9688 15 4.5 14.5625 4.5 14V6C4.5 5.4375 4.9688 5 5.5 5H7.5C8.0625 5 8.5 4.5625 8.5 4C8.5 3.4688 8.0625 3 7.5 3H5.5C3.8438 3 2.5 4.3438 2.5 6V14ZM7.5 10C7.5 10.5312 7.9375 11 8.5 11H14.0938L12.8125 12.2812C12.5938 12.4688 12.5 12.7188 12.5 13C12.5 13.5625 12.9375 14 13.5 14C13.75 14 14 13.9062 14.2188 13.7188L17.2188 10.6875C17.4062 10.5 17.5 10.25 17.5 10C17.5 9.75 17.4062 9.5 17.2188 9.2812L14.2188 6.2812C14.0312 6.0938 13.75 6 13.5 6C12.9688 6 12.5 6.4375 12.5 7C12.5 7.25 12.5938 7.5312 12.8125 7.7188L14.0938 9H8.5C7.9375 9 7.5 9.4375 7.5 10Z" fill="#1A1C1F"/>
</g>
<defs>
<clipPath id="clip0_187_61">
<rect width="20" height="20" fill="white"/>
</clipPath>
</defs>
</svg>

<svg xmlns="http://www.w3.org/2000/svg" width="20" height="20" fill="none"><g clip-path="url(#a)"><path fill="#1A1C1F" fill-rule="evenodd" d="M2.5 14a3 3 0 0 0 3 3h2c.563 0 1-.469 1-1 0-.562-.437-1-1-1h-2c-.531 0-1-.437-1-1V6c0-.562.469-1 1-1h2c.563 0 1-.437 1-1 0-.531-.437-1-1-1h-2a3 3 0 0 0-3 3zm5-4c0 .531.438 1 1 1h5.594l-1.281 1.281A.9.9 0 0 0 12.5 13c0 .563.438 1 1 1 .25 0 .5-.094.719-.281l3-3.031A.97.97 0 0 0 17.5 10c0-.25-.094-.5-.281-.719l-3-3A1.04 1.04 0 0 0 13.5 6c-.531 0-1 .438-1 1 0 .25.094.531.313.719L14.093 9H8.5c-.562 0-1 .438-1 1" clip-rule="evenodd"/></g><defs><clipPath id="a"><path fill="#fff" d="M0 0h20v20H0z"/></clipPath></defs></svg>
